resources/svg/solid/user-detail.svg

<svg xmlns="http://www.w3.org/2000/svg" fill="currentColor" stroke="none" viewBox="0 0 24 24"><path d="M15 11h7v2h-7zm1 4h6v2h-6zm-2-8h8v2h-8zM4 19h10v-1c0-2.757-2.243-5-5-5H7c-2.757 0-5 2.243-5 5v1h2zm4-7c1.995 0 3.5-1.505 3.5-3.5S9.995 5 8 5 4.5 6.505 4.5 8.5 6.005 12 8 12z"/></svg>

<svg xmlns="http://www.w3.org/2000/svg" fill="currentColor" stroke="none" viewBox="0 0 24 24"><path d="M15 11H22V13H15zM16 15H22V17H16zM14 7H22V9H14zM4 19h8 1 1v-1c0-2.757-2.243-5-5-5H7c-2.757 0-5 2.243-5 5v1h1H4zM8 12c1.995 0 3.5-1.505 3.5-3.5S9.995 5 8 5 4.5 6.505 4.5 8.5 6.005 12 8 12z"/></svg>
